images/furniture/bench-right.svg

<?xml version="1.0" standalone="no"?><!DOCTYPE svg PUBLIC "-//W3C//DTD SVG 1.1//EN" "http://www.w3.org/Graphics/SVG/1.1/DTD/svg11.dtd"><svg width="72px" height="144px" version="1.1" xmlns="http://www.w3.org/2000/svg" xmlns:xlink="http://www.w3.org/1999/xlink" xml:space="preserve" style="fill-rule:evenodd;clip-rule:evenodd;stroke-linejoin:round;stroke-miterlimit:1.41421;"><g><g id="bench-right" transform="matrix(0.5,0,0,0.5,-88.9412,48)"><g transform="matrix(2.00017,-9.86076e-32,-9.86076e-32,2.00017,-10.4354,-1032.1)"><path d="M140.702,586.079l-0.772,3.041l-37.338,0.043l-1.04,-3.303l39.15,0.219Z" style="fill:#655949;fill-rule:nonzero;"/></g><g transform="matrix(2.00017,-9.86076e-32,-9.86076e-32,2.00017,-10.4354,-1032.1)"><path d="M156.722,549.68l2.632,1.709l-11.948,35.375l-3.462,-0.076l12.778,-37.008Z" style="fill:#655949;fill-rule:nonzero;"/></g><g transform="matrix(2.00017,-9.86076e-32,-9.86076e-32,2.00017,-10.4354,-1032.1)"><path d="M99.6435,587.744l9.093,24.243l9.625,0l-10.329,-27.354l-8.389,3.111Z" style="fill:#7c705b;fill-rule:nonzero;"/></g><g transform="matrix(2.00017,-9.86076e-32,-9.86076e-32,2.00017,-10.4354,-1032.1)"><path d="M132.611,611.987l9.437,0l8.211,-24.415l-9.267,-0.506l-8.381,24.921Z" style="fill:#7c705b;fill-rule:nonzero;"/></g><g transform="matrix(2.00017,-9.86076e-32,-9.86076e-32,2.00017,-10.4354,-1032.1)"><path d="M111.739,592.314l3.127,-9.402l-18.691,-0.036l3.043,9.479l12.521,-0.041Z" style="fill:#968974;fill-rule:nonzero;"/></g><g transform="matrix(2.00017,-9.86076e-32,-9.86076e-32,2.00017,-10.4354,-1032.1)"><path d="M149.239,592.314l3.127,-9.402l-18.691,-0.036l3.043,9.479l12.521,-0.041Z" style="fill:#968974;fill-rule:nonzero;"/></g><g transform="matrix(2.00017,-9.86076e-32,-9.86076e-32,2.00017,-10.4354,-1032.1)"><path d="M130.489,582.918l3.127,9.402l-18.691,0.036l3.043,-9.479l12.521,0.041Z" style="fill:#968974;fill-rule:nonzero;"/></g><g transform="matrix(2.00017,-9.86076e-32,-9.86076e-32,2.00017,-10.4354,-1032.1)"><path d="M157.126,568.107l-7.911,-5.968l-6.006,17.7l9.955,0.146l3.962,-11.878Z" style="fill:#968974;fill-rule:nonzero;"/></g><g transform="matrix(2.00017,-9.86076e-32,-9.86076e-32,2.00017,-10.4354,-1032.1)"><path d="M154.212,547.337l9.909,0.041l-5.939,17.724l-8.01,-5.912l4.04,-11.853Z" style="fill:#968974;fill-rule:nonzero;"/></g></g></g></svg>

<?xml version="1.0" encoding="UTF-8" standalone="no"?>
<!DOCTYPE svg PUBLIC "-//W3C//DTD SVG 1.1//EN" "http://www.w3.org/Graphics/SVG/1.1/DTD/svg11.dtd">
<svg width="100%" height="100%" viewBox="0 0 90 90" version="1.1" xmlns="http://www.w3.org/2000/svg" xmlns:xlink="http://www.w3.org/1999/xlink" xml:space="preserve" xmlns:serif="http://www.serif.com/" style="fill-rule:evenodd;clip-rule:evenodd;stroke-linejoin:round;stroke-miterlimit:2;">
    <g id="bench-right" transform="matrix(0.635,0,0,0.635,-113.675,-31.92)">
        <g transform="matrix(2.00017,-9.86076e-32,-9.86076e-32,2.00017,-10.4354,-1032.1)">
            <path d="M140.702,586.079L139.93,589.12L102.592,589.163L101.552,585.86L140.702,586.079Z" style="fill:rgb(101,89,73);fill-rule:nonzero;"/>
        </g>
        <g transform="matrix(2.00017,-9.86076e-32,-9.86076e-32,2.00017,-10.4354,-1032.1)">
            <path d="M156.722,549.68L159.354,551.389L147.406,586.764L143.944,586.688L156.722,549.68Z" style="fill:rgb(101,89,73);fill-rule:nonzero;"/>
        </g>
        <g transform="matrix(2.00017,-9.86076e-32,-9.86076e-32,2.00017,-10.4354,-1032.1)">
            <path d="M99.644,587.744L108.737,611.987L118.362,611.987L108.033,584.633L99.644,587.744Z" style="fill:rgb(124,112,91);fill-rule:nonzero;"/>
        </g>
        <g transform="matrix(2.00017,-9.86076e-32,-9.86076e-32,2.00017,-10.4354,-1032.1)">
            <path d="M132.611,611.987L142.048,611.987L150.259,587.572L140.992,587.066L132.611,611.987Z" style="fill:rgb(124,112,91);fill-rule:nonzero;"/>
        </g>
        <g transform="matrix(2.00017,-9.86076e-32,-9.86076e-32,2.00017,-10.4354,-1032.1)">
            <path d="M111.739,592.314L114.866,582.912L96.175,582.877L99.218,592.356L111.739,592.314Z" style="fill:rgb(150,137,116);fill-rule:nonzero;"/>
        </g>
        <g transform="matrix(2.00017,-9.86076e-32,-9.86076e-32,2.00017,-10.4354,-1032.1)">
            <path d="M149.239,592.314L152.366,582.912L133.675,582.877L136.718,592.356L149.239,592.314Z" style="fill:rgb(150,137,116);fill-rule:nonzero;"/>
        </g>
        <g transform="matrix(2.00017,-9.86076e-32,-9.86076e-32,2.00017,-10.4354,-1032.1)">
            <path d="M130.489,582.918L133.616,592.32L114.925,592.356L117.968,582.877L130.489,582.918Z" style="fill:rgb(150,137,116);fill-rule:nonzero;"/>
        </g>
        <g transform="matrix(2.00017,-9.86076e-32,-9.86076e-32,2.00017,-10.4354,-1032.1)">
            <path d="M157.126,568.107L149.215,562.139L143.209,579.839L153.164,579.985L157.126,568.107Z" style="fill:rgb(150,137,116);fill-rule:nonzero;"/>
        </g>
        <g transform="matrix(2.00017,-9.86076e-32,-9.86076e-32,2.00017,-10.4354,-1032.1)">
            <path d="M154.212,547.337L164.121,547.378L158.182,565.102L150.172,559.19L154.212,547.337Z" style="fill:rgb(150,137,116);fill-rule:nonzero;"/>
        </g>
    </g>
</svg>
